public/library/toku-icon-light.svg

<?xml version="1.0" encoding="UTF-8"?>
<svg xmlns="http://www.w3.org/2000/svg" width="118" height="40" viewBox="0 0 118 40" fill="none">
  <path d="M86.6771 21.195C87.7684 19.7333 88.8596 18.2716 89.9507 16.8098C90.4979 16.0762 91.033 15.3334 91.5902 14.6075C93.3948 12.2562 95.7514 12.1171 98.4128 12.775C99.0053 12.9215 98.6807 13.2061 98.4732 13.4649C96.3571 16.1035 94.2601 18.7575 92.117 21.3739C91.6777 21.9102 91.6717 22.2424 92.1148 22.7831C94.2426 25.379 96.3236 28.0131 98.4188 30.6357C98.9109 31.2516 98.902 31.3189 98.1146 31.4749C94.8711 32.1175 92.9827 31.5802 91.1684 29.0199C89.846 27.1537 88.447 25.3417 87.0797 23.5074C86.9456 23.3275 86.7943 23.1603 86.647 22.9823C86.3774 23.1711 86.4914 23.421 86.4901 23.6268C86.4792 25.3814 86.4896 27.1361 86.4814 28.8907C86.4742 30.4082 85.5692 31.4188 84.0564 31.6219C81.5779 31.9546 81.4982 31.8864 81.4982 29.4339C81.4982 23.2291 81.5673 17.0232 81.4663 10.8201C81.4219 8.09523 83.2379 7.16677 85.2829 7.33527C86.691 7.45129 86.4762 7.17718 86.4803 8.63024C86.491 12.5209 86.4839 16.4117 86.4839 20.3024C86.4839 20.5739 86.4839 20.8455 86.4839 21.1171L86.6771 21.195Z" fill="white"></path>
  <path d="M117.988 21.4772C117.987 23.9447 117.959 26.4126 117.999 28.8794C118.018 30.0121 117.531 30.6848 116.492 31.0673C113.299 32.2426 110.024 32.6968 106.659 32.1074C103.116 31.487 101.059 29.1139 100.971 25.4179C100.879 21.5281 100.937 17.6345 100.945 13.7426C100.947 12.9293 101.42 12.4692 102.226 12.4527C103.067 12.4355 103.909 12.4539 104.75 12.4469C104.883 12.4286 105.019 12.4393 105.148 12.4783C105.277 12.5172 105.396 12.5834 105.498 12.6725C105.599 12.7616 105.68 12.8713 105.735 12.9944C105.79 13.1175 105.817 13.2509 105.816 13.3857C105.851 13.739 105.881 14.0947 105.882 14.4493C105.887 17.7816 105.877 21.114 105.89 24.4463C105.896 26.1791 106.456 27.1317 107.781 27.4715C109.264 27.8518 110.762 27.694 112.243 27.3457C112.767 27.2224 112.638 26.8245 112.638 26.4929C112.644 22.4229 112.646 18.3528 112.643 14.2828C112.643 12.7842 112.98 12.4513 114.484 12.4483C115.07 12.4472 115.656 12.4471 116.243 12.448C117.776 12.4485 117.988 12.6641 117.988 14.2274C117.989 16.644 117.989 19.0606 117.988 21.4772Z" fill="white"></path>
  <path d="M61.2527 21.977C61.3348 20.9167 61.1231 19.4707 61.4106 18.0263C61.8623 15.7567 63.1118 14.0875 65.2148 13.2167C66.6794 12.5782 68.263 12.2585 69.8606 12.2787C71.4582 12.299 73.0332 12.6587 74.4812 13.3341C76.9988 14.4768 78.0685 16.6343 78.1969 19.264C78.2972 21.3182 78.2577 23.3822 78.2079 25.4401C78.1209 29.0298 75.5454 31.7143 71.9585 32.1826C69.8782 32.4542 67.8624 32.4271 65.8616 31.746C64.5456 31.3231 63.3945 30.4998 62.5691 29.3911C61.7437 28.2823 61.2851 26.9435 61.2575 25.5615C61.2277 24.4947 61.2527 23.4263 61.2527 21.977ZM73.3405 22.3375C73.3405 21.4734 73.3591 20.6087 73.3362 19.7452C73.2989 18.3326 72.6171 17.3834 71.402 17.0517C70.3949 16.7585 69.3286 16.7341 68.3092 16.981C66.9191 17.3282 66.1391 18.1908 66.1137 19.611C66.0811 21.4404 66.0813 23.2702 66.1142 25.1005C66.1379 26.3918 66.805 27.2356 68.0405 27.6382C69.0923 27.9712 70.2193 27.985 71.279 27.6779C72.6262 27.3123 73.2868 26.4355 73.334 25.006C73.3633 24.1174 73.3394 23.2271 73.3405 22.3375Z" fill="white"></path>
  <path d="M48.8302 21.6775C48.8301 18.6268 48.8125 15.5759 48.8449 12.5256C48.8514 11.9127 48.665 11.7463 48.0738 11.7603C46.5716 11.7957 45.068 11.7743 43.5649 11.7709C41.8031 11.7671 40.8447 10.8911 40.6629 9.12569C40.4773 7.32345 40.5026 7.29513 42.3034 7.29517C47.7552 7.29527 53.207 7.2958 58.6589 7.29676C60.8954 7.29837 62.2375 8.91881 61.9018 11.1582C61.8309 11.6317 61.642 11.7872 61.1613 11.7822C58.9451 11.7592 56.7283 11.791 54.5124 11.7596C53.9177 11.7512 53.7373 11.9138 53.7401 12.5245C53.764 17.8377 53.7565 23.151 53.7521 28.4643C53.7502 30.7981 51.3906 32.3818 49.1531 31.5796C48.7253 31.4262 48.8348 31.1112 48.8342 30.8296C48.8278 27.7789 48.8265 24.7282 48.8302 21.6775Z" fill="white"></path>
  <path d="M17.0022 19.7015C17.0154 19.9708 16.9732 20.24 16.8781 20.4923C16.783 20.7446 16.6371 20.9747 16.4494 21.1683C13.9537 23.6723 11.4609 26.1793 8.94024 28.6581C8.7401 28.8556 8.50296 29.0118 8.24241 29.1176C7.98185 29.2234 7.70298 29.2768 7.42176 29.2747C7.14054 29.2727 6.86249 29.2152 6.60352 29.1055C6.34455 28.9959 6.10975 28.8362 5.91254 28.6357C5.7128 28.4383 5.5548 28.2027 5.44792 27.9429C5.34104 27.6832 5.28747 27.4046 5.29038 27.1238C5.2933 26.8429 5.35264 26.5655 5.46489 26.3081C5.57714 26.0506 5.73999 25.8184 5.94379 25.6251C7.47037 24.0612 9.03297 22.5324 10.5754 20.9838C11.4945 20.061 11.4923 19.4412 10.5721 18.5184C9.02837 16.9701 7.45852 15.4471 5.94096 13.8738C4.7429 12.6317 5.23084 10.8179 6.86323 10.2881C7.21571 10.1657 7.59599 10.1475 7.95856 10.2356C8.32113 10.3237 8.65061 10.5145 8.90756 10.7851C11.4471 13.2808 13.9685 15.7949 16.4717 18.3273C16.6512 18.5066 16.7912 18.7215 16.8826 18.9582C16.9739 19.1949 17.0147 19.4481 17.0022 19.7015Z" fill="white"></path>
  <path d="M29.3795 32.2739C29.364 32.6525 29.24 33.0187 29.0223 33.3289C28.8047 33.6391 28.5024 33.8802 28.1517 34.0235C27.7498 34.2237 27.2944 34.2899 26.8521 34.2124C26.4099 34.1349 26.0041 33.9179 25.6942 33.593C24.1669 32.0974 22.6615 30.5794 21.1462 29.0715C20.1262 28.0566 19.5248 28.0529 18.5126 29.0594C16.9962 30.5672 15.5004 32.0965 13.9612 33.5807C12.7703 34.7291 10.9366 34.3258 10.411 32.8181C10.2621 32.4477 10.2259 32.0416 10.3071 31.6507C10.3883 31.2599 10.5833 30.9018 10.8674 30.6214C13.3391 28.1273 15.8254 25.6479 18.3266 23.1831C18.5206 22.9765 18.7551 22.812 19.0154 22.6999C19.2758 22.5878 19.5564 22.5305 19.8398 22.5315C20.1232 22.5325 20.4034 22.5918 20.663 22.7057C20.9225 22.8196 21.1558 22.9857 21.3484 23.1937C23.8569 25.6535 26.3331 28.1462 28.8113 30.6367C29.0153 30.8546 29.1714 31.1129 29.2692 31.395C29.3671 31.677 29.4047 31.9764 29.3795 32.2739Z" fill="white"></path>
  <path d="M10.2949 7.36866C10.2783 6.95991 10.3875 6.55592 10.6078 6.21118C10.828 5.86644 11.1487 5.59753 11.5265 5.44075C11.9347 5.25196 12.3917 5.19579 12.8334 5.28013C13.2751 5.36446 13.6793 5.58508 13.9891 5.91096C15.4932 7.39103 16.9806 8.88796 18.4751 10.3777C19.5344 11.4337 20.1543 11.4292 21.2311 10.3555C22.725 8.86597 24.2092 7.36664 25.7147 5.88883C26.0298 5.56801 26.4384 5.35516 26.8819 5.28075C27.3254 5.20635 27.7811 5.27421 28.1836 5.47462C28.5809 5.65374 28.9103 5.95557 29.1234 6.33577C29.3364 6.71596 29.4219 7.15447 29.3673 7.58685C29.3228 8.09713 29.095 8.574 28.7259 8.92914C26.2764 11.3719 23.8386 13.8264 21.3753 16.2552C21.1794 16.4679 20.9418 16.6379 20.6773 16.7548C20.4128 16.8717 20.1271 16.9328 19.8379 16.9345C19.5488 16.9361 19.2623 16.8782 18.9965 16.7644C18.7307 16.6505 18.4912 16.4832 18.2929 16.2727C15.8081 13.8281 13.3486 11.3579 10.888 8.8891C10.6842 8.69426 10.5255 8.4572 10.4231 8.19455C10.3206 7.9319 10.2769 7.65001 10.2949 7.36866Z" fill="white"></path>
  <path d="M22.6809 19.7519C22.6682 19.4506 22.7223 19.1503 22.8393 18.8724C22.9563 18.5946 23.1334 18.346 23.3578 18.1446C25.7702 15.7372 28.1738 13.3207 30.5959 10.923C31.5549 9.97356 32.8651 9.95635 33.733 10.833C34.5997 11.7084 34.5729 13.0037 33.6242 13.9674C32.1246 15.4907 30.598 16.9875 29.0886 18.5012C28.1778 19.4147 28.1801 20.0551 29.0949 20.9733C30.5671 22.451 32.0484 23.9196 33.5205 25.3973C34.5659 26.4466 34.6507 27.7173 33.7483 28.6345C32.8629 29.5343 31.513 29.471 30.4943 28.459C28.1465 26.1267 25.8027 23.7902 23.4631 21.4495C23.2164 21.2411 23.0184 20.981 22.8833 20.6877C22.7481 20.3943 22.679 20.0749 22.6809 19.7519Z" fill="white"></path>
  <path d="M36.3026 17.2528C36.7431 17.2837 37.3407 17.156 37.9066 17.3316C38.4027 17.4992 38.837 17.8119 39.1532 18.2292C39.4695 18.6465 39.6531 19.1491 39.6804 19.672C39.7042 20.2094 39.5476 20.7393 39.2356 21.1775C38.9236 21.6157 38.474 21.9371 37.9584 22.0904C36.7625 22.4522 35.4864 22.4528 34.2901 22.0924C33.7127 21.917 33.2208 21.5337 32.9097 21.0166C32.5985 20.4995 32.4902 19.8854 32.6057 19.2931C32.7204 18.7181 33.0309 18.2006 33.4843 17.8287C33.9377 17.4568 34.5059 17.2536 35.0923 17.2536C35.4484 17.2485 35.8046 17.2528 36.3026 17.2528Z" fill="white"></path>
  <path d="M3.47889 22.3128C2.92112 22.2994 2.35403 22.392 1.80734 22.2319C1.27918 22.0762 0.816556 21.7518 0.490222 21.3082C0.163888 20.8647 -0.00819116 20.3265 0.000299795 19.7759C0.00335267 19.2239 0.197447 18.6899 0.549606 18.2647C0.901764 17.8395 1.39027 17.5494 1.93211 17.4436C2.98247 17.2328 4.06452 17.2357 5.11374 17.4521C5.67757 17.5784 6.17778 17.9019 6.5243 18.3643C6.87082 18.8267 7.0409 19.3975 7.00391 19.9742C6.968 20.5764 6.71461 21.145 6.29086 21.5744C5.86711 22.0038 5.30184 22.2646 4.70017 22.3085C4.29487 22.3361 3.88608 22.3128 3.47889 22.3128Z" fill="white"></path>
  <path d="M22.3972 3.49466C22.4258 4.04486 22.3883 4.5965 22.2853 5.13774C22.1333 5.70739 21.7829 6.20405 21.2972 6.53828C20.8115 6.87251 20.2225 7.02234 19.6361 6.96078C19.0747 6.90976 18.5482 6.66598 18.1461 6.27083C17.744 5.87569 17.491 5.35355 17.4302 4.79307C17.3759 3.95665 17.3721 3.11771 17.4188 2.28082C17.4561 1.67805 17.7168 1.11084 18.1499 0.689952C18.583 0.269061 19.1574 0.0247089 19.761 0.00460993C20.3497 -0.0315392 20.9317 0.145835 21.4001 0.504172C21.8686 0.862508 22.1921 1.37776 22.3112 1.95538C22.3857 2.46488 22.4145 2.98003 22.3972 3.49466Z" fill="white"></path>
  <path d="M22.2767 36.024C22.2771 36.3794 22.2869 36.7353 22.2753 37.0904C22.2699 37.6792 22.0519 38.2463 21.6614 38.6871C21.2709 39.1279 20.7342 39.4127 20.1503 39.489C18.7678 39.6354 17.6443 38.8837 17.3829 37.56C17.1876 36.5607 17.1861 35.5333 17.3783 34.5334C17.6316 33.2008 18.7443 32.4446 20.1271 32.5803C20.7117 32.6506 21.2511 32.93 21.6458 33.367C22.0404 33.8039 22.2637 34.3689 22.2743 34.9576C22.2871 35.3126 22.2763 35.6685 22.2767 36.024Z" fill="white"></path>
</svg>

<svg xmlns="http://www.w3.org/2000/svg" width="118" height="40" fill="none" viewBox="0 0 118 40"><path fill="#fff" d="m86.677 21.195 3.274-4.385c.547-.734 1.082-1.477 1.64-2.202 1.804-2.352 4.16-2.49 6.822-1.833.592.146.268.431.06.69-2.116 2.639-4.213 5.293-6.356 7.909-.44.536-.445.868-.002 1.41 2.128 2.595 4.209 5.23 6.304 7.852.492.616.483.683-.304.839-3.244.642-5.132.105-6.947-2.455-1.322-1.866-2.721-3.678-4.088-5.513-.134-.18-.286-.347-.433-.525-.27.19-.156.439-.157.645-.01 1.754 0 3.51-.009 5.264-.007 1.517-.912 2.528-2.425 2.73-2.478.334-2.558.265-2.558-2.187 0-6.205.07-12.41-.032-18.614-.044-2.725 1.772-3.653 3.817-3.485 1.408.116 1.193-.158 1.197 1.295.011 3.89.004 7.782.004 11.672v.815zM117.988 21.477c-.001 2.468-.029 4.936.011 7.402.019 1.133-.468 1.806-1.507 2.188-3.193 1.176-6.468 1.63-9.833 1.04-3.543-.62-5.6-2.993-5.688-6.69-.092-3.889-.034-7.783-.026-11.674.002-.814.475-1.274 1.281-1.29.841-.018 1.683 0 2.524-.006a.936.936 0 0 1 .985.547.94.94 0 0 1 .081.392c.035.353.065.709.066 1.063.005 3.333-.005 6.665.008 9.997.006 1.733.566 2.686 1.891 3.025 1.483.38 2.981.223 4.462-.125.524-.124.395-.521.395-.853q.01-6.105.005-12.21c0-1.499.337-1.832 1.841-1.835h1.759c1.533 0 1.745.216 1.745 1.78zM61.253 21.977c.082-1.06-.13-2.506.158-3.95.451-2.27 1.7-3.94 3.804-4.81a11.27 11.27 0 0 1 9.266.117c2.518 1.143 3.588 3.3 3.716 5.93.1 2.054.06 4.118.01 6.176-.086 3.59-2.662 6.274-6.248 6.743-2.08.271-4.097.244-6.097-.437a6.64 6.64 0 0 1-4.604-6.184c-.03-1.067-.005-2.136-.005-3.585m12.088.36c0-.864.018-1.728-.005-2.592-.037-1.412-.719-2.362-1.934-2.693a6 6 0 0 0-3.093-.071c-1.39.347-2.17 1.21-2.195 2.63a153 153 0 0 0 0 5.49c.024 1.29.691 2.135 1.926 2.537a5.6 5.6 0 0 0 3.239.04c1.347-.366 2.008-1.242 2.055-2.672.03-.889.005-1.779.007-2.669M48.83 21.678c0-3.051-.017-6.102.015-9.152.006-.613-.18-.78-.771-.766-1.502.036-3.006.014-4.51.01-1.76-.003-2.72-.879-2.901-2.644-.186-1.803-.16-1.83 1.64-1.83H58.66c2.236.002 3.578 1.623 3.243 3.862-.071.474-.26.63-.74.624-2.217-.023-4.434.009-6.65-.022-.594-.009-.775.154-.772.765.024 5.313.017 10.626.012 15.94-.002 2.333-2.361 3.917-4.599 3.115-.428-.154-.318-.469-.319-.75q-.01-4.577-.004-9.152M17.002 19.702a1.97 1.97 0 0 1-.553 1.466c-2.495 2.504-4.988 5.011-7.509 7.49a2.14 2.14 0 0 1-3.027-.022 2.094 2.094 0 0 1 .03-3.01c1.527-1.565 3.09-3.094 4.632-4.642.92-.923.917-1.543-.003-2.466-1.544-1.548-3.113-3.07-4.631-4.644-1.198-1.242-.71-3.056.922-3.586a1.94 1.94 0 0 1 2.045.497 736 736 0 0 1 7.564 7.542 1.82 1.82 0 0 1 .53 1.374M29.38 32.274a1.98 1.98 0 0 1-1.228 1.75 2.1 2.1 0 0 1-2.458-.431c-1.527-1.496-3.032-3.014-4.548-4.522-1.02-1.014-1.621-1.018-2.633-.012-1.517 1.508-3.013 3.037-4.552 4.522-1.19 1.148-3.024.745-3.55-.763a2.025 2.025 0 0 1 .456-2.197 890 890 0 0 1 7.46-7.438 2.066 2.066 0 0 1 3.021.01c2.509 2.46 4.985 4.953 7.463 7.444a2.13 2.13 0 0 1 .569 1.637M10.295 7.369a2 2 0 0 1 1.232-1.928 2.15 2.15 0 0 1 2.462.47c1.504 1.48 2.992 2.977 4.486 4.467 1.06 1.056 1.68 1.051 2.756-.023 1.494-1.489 2.978-2.988 4.484-4.466a2.13 2.13 0 0 1 2.469-.414 2.04 2.04 0 0 1 1.183 2.112c-.044.51-.272.987-.641 1.342-2.45 2.443-4.887 4.897-7.35 7.326a2.106 2.106 0 0 1-3.083.018c-2.485-2.445-4.944-4.915-7.405-7.384a1.93 1.93 0 0 1-.593-1.52M22.68 19.752a2.05 2.05 0 0 1 .678-1.607c2.412-2.408 4.816-4.824 7.238-7.222.959-.95 2.27-.967 3.137-.09.867.875.84 2.17-.109 3.134-1.5 1.524-3.026 3.02-4.535 4.534-.911.914-.909 1.554.006 2.472 1.472 1.478 2.953 2.947 4.426 4.424 1.045 1.05 1.13 2.32.227 3.238-.885.9-2.235.836-3.254-.176a2799 2799 0 0 1-7.03-7.01 2.2 2.2 0 0 1-.783-1.697"/><path fill="#fff" d="M36.303 17.253c.44.03 1.038-.097 1.604.079a2.61 2.61 0 0 1 1.773 2.34 2.41 2.41 0 0 1-1.722 2.418 6.35 6.35 0 0 1-3.668.002 2.44 2.44 0 0 1-1.684-2.799 2.536 2.536 0 0 1 2.486-2.04c.356-.005.713 0 1.21 0M3.479 22.313c-.558-.014-1.125.079-1.672-.081A2.52 2.52 0 0 1 0 19.776a2.39 2.39 0 0 1 1.932-2.332 8 8 0 0 1 3.182.008 2.425 2.425 0 0 1 1.89 2.522A2.49 2.49 0 0 1 4.7 22.308c-.405.028-.814.005-1.221.005M22.397 3.495a7 7 0 0 1-.112 1.643 2.475 2.475 0 0 1-2.649 1.823 2.44 2.44 0 0 1-2.206-2.168 21 21 0 0 1-.011-2.512A2.427 2.427 0 0 1 19.76.005a2.45 2.45 0 0 1 2.55 1.95q.113.766.086 1.54M22.277 36.024c0 .355.01.711-.002 1.066a2.44 2.44 0 0 1-2.125 2.399c-1.382.146-2.506-.605-2.767-1.929a8 8 0 0 1-.005-3.027c.254-1.332 1.366-2.088 2.75-1.953a2.44 2.44 0 0 1 2.146 2.378c.013.355.002.71.003 1.066"/></svg>
